X: 1
T: Boys From Wexford, The
Z: ceolachan
S: https://thesession.org/tunes/3826#setting3826
R: barndance
M: 4/4
L: 1/8
K: Gmaj
D2 |G3 A GF E<D | d3 e d2 c2 | B2 G2 BA GF | E4 E2 F2 |
G3 A GF E<D | d3 e d2 c2 | B2 G2 BA GF | G4 G2 ||
d2 |e2 c2 g3 e | d4 B2 d2 | c2 B2 A2 G2 | E6 F2 |
G3 A GF E<D | d3 e d2 c2 | B2 G>A BA GF | G4 G2 |]
